svg/Filled/phone_filled.svg

<svg viewBox="0 0 24 24" xmlns="http://www.w3.org/2000/svg" width="24" height="24"><path d="m8 3.47.1.11.06.09.13.2 1.5 2.28c.65 1.16.73 2.23.06 3.12l-.1.12-1.04 1.43a.2.2 0 0 0 0 .24q.65.99 1.45 1.87l.32.35.24.24q1.03.99 2.22 1.77a.2.2 0 0 0 .24 0l1.43-1.04c.9-.78 2.03-.72 3.24-.05l2.29 1.5.28.2.1.1c.96.92.66 2.18-.38 3.38l-.03.03c-2.82 2.82-6.81 2.27-12.04-2.84l-.23-.23-.1-.09-.08-.09-.23-.23C2.4 10.8 1.79 6.83 4.45 4.03l.14-.14.03-.03C5.82 2.82 7.08 2.52 8 3.47"/></svg>

<svg viewBox="0 0 24 24" xmlns="http://www.w3.org/2000/svg" width="24" height="24"><path d="M8 3.47L9.79 6.15C10.44 7.31 10.52 8.38 9.85 9.27L8.71 10.82A.2 .2 0 0 0 8.71 11.06Q9.36 12.05 10.16 12.93L10.72 13.52Q11.75 14.51 12.94 15.29A.2 .2 0 0 0 13.18 15.29L14.61 14.25C15.51 13.47 16.64 13.53 17.85 14.2L20.42 15.9L20.52 16C21.48 16.92 21.18 18.18 20.14 19.38L20.11 19.41C17.29 22.23 13.3 21.68 8.07 16.57L7.43 15.93C2.4 10.8 1.79 6.83 4.45 4.03L4.62 3.86C5.82 2.82 7.08 2.52 8 3.47"/></svg>
